svgs/vectorpinball.svg

<svg xmlns="http://www.w3.org/2000/svg" viewBox="0 0 192 192"><path d="m80.508 145.717 94.668-38.023V24.868a8.584 8.584 0 0 0-8.583-8.368H24.763a8.582 8.582 0 0 0-8.368 8.583v76.131l50.08-20.127m-50.08 20.127v65.703a8.587 8.587 0 0 0 8.583 8.583h142.044a8.585 8.585 0 0 0 8.583-8.583v-59.223m-63.598-67.162a10.774 10.774 0 0 1 10.771 10.772 10.774 10.774 0 0 1-10.771 10.772 10.778 10.778 0 0 1-7.617-3.155 10.768 10.768 0 0 1 2.231-16.945 10.768 10.768 0 0 1 5.386-1.444Z" fill="none" stroke="#000" stroke-width="12" stroke-linecap="round" stroke-linejoin="round"/></svg>

<svg
    xmlns="http://www.w3.org/2000/svg"
    viewBox="0 0 192 192"
    id="vector">
    <path
        id="path"
        d="M 80.508 145.717 L 175.176 107.694 L 175.176 24.868 C 175.12 22.63 174.191 20.501 172.588 18.938 C 170.985 17.375 168.832 16.499 166.593 16.5 L 24.763 16.5 C 22.525 16.556 20.395 17.486 18.832 19.089 C 17.269 20.692 16.394 22.844 16.395 25.083 L 16.395 101.214 L 66.475 81.087 M 16.395 101.214 L 16.395 166.917 C 16.395 169.192 17.3 171.377 18.909 172.986 C 20.518 174.595 22.702 175.5 24.978 175.5 L 167.022 175.5 C 169.298 175.5 171.482 174.595 173.091 172.986 C 174.7 171.377 175.605 169.192 175.605 166.917 L 175.605 107.694 M 112.007 40.532 C 114.863 40.532 117.604 41.668 119.623 43.687 C 121.643 45.707 122.778 48.448 122.778 51.304 C 122.778 54.16 121.643 56.901 119.623 58.921 C 117.604 60.94 114.862 62.076 112.007 62.076 C 109.151 62.076 106.41 60.94 104.39 58.921 C 102.371 56.901 101.235 54.16 101.235 51.304 C 101.235 49.413 101.733 47.556 102.679 45.918 C 103.624 44.281 104.984 42.921 106.621 41.976 C 108.259 41.03 110.116 40.532 112.007 40.532 Z"
        fill="none"
        stroke="#000000"
        stroke-width="12"
        stroke-linecap="round"
        stroke-linejoin="round"/>
</svg>
